src/images/pressA.svg

<svg width="145" height="75" viewBox="0 0 145 75" fill="none" xmlns="http://www.w3.org/2000/svg"><path d="M10 0v5H5v5H0v35h5v5h5v5h70v5h5v5h5v5h5v5h10V55h30v-5h5v-5h5V10h-5V5h-5V0H10z" fill="#E31CB8"/><path d="M10 0v5H5v5H0v30h5v5h5v5h70v5h5v5h5v5h5v5h5V50h30v-5h5v-5h5V10h-5V5h-5V0H10z" fill="#31CEFF"/><path d="M17 33V19h12v2h2v6h-2v2h-8v4h-4zm4-6h6v-6h-6v6zm18-2h2v2h-2v6h-4V23h4v2zm8-2v2h-6v-2h6zm4 10v-2h-2v-6h2v-2h10v2h2v4H53v2h8v2H51zm2-6h6v-2h-6v2zm12 6v-2h10v-2h-8v-2h-2v-2h2v-2h10v2h-8v2h8v2h2v2h-2v2H65zm16 0v-2h10v-2h-8v-2h-2v-2h2v-2h10v2h-8v2h8v2h2v2h-2v2H81zm32 0V23h2v-2h2v-2h6v2h2v2h2v10h-4v-4h-6v4h-4zm4-6h6v-4h-2v-2h-2v2h-2v4z" fill="#fff"/></svg>

<svg width="145" height="75" viewBox="0 0 145 75" fill="none" xmlns="http://www.w3.org/2000/svg">
<path d="M10 0V5H5V10H0V45H5V50H10V55H80V60H85V65H90V70H95V75H105V55H135V50H140V45H145V10H140V5H135V0H10Z" fill="#E31CB8"/>
<path d="M10 0V5H5V10H0V40H5V45H10V50H80V55H85V60H90V65H95V70H100V50H130V45H135V40H140V10H135V5H130V0H10Z" fill="#31CEFF"/>
<path d="M17 33V19H29V21H31V27H29V29H21V33H17ZM21 27H27V21H21V27ZM39 25H41V27H39V33H35V23H39V25ZM47 23V25H41V23H47ZM51 33V31H49V25H51V23H61V25H63V29H53V31H61V33H51ZM53 27H59V25H53V27ZM65 33V31H75V29H67V27H65V25H67V23H77V25H69V27H77V29H79V31H77V33H65ZM81 33V31H91V29H83V27H81V25H83V23H93V25H85V27H93V29H95V31H93V33H81ZM113 33V23H115V21H117V19H123V21H125V23H127V33H123V29H117V33H113ZM117 27H123V23H121V21H119V23H117V27Z" fill="white"/>
</svg>
